X:47
T:Batuta de la mironu
O:rumania
M:4/4
L:1/8
Q:1/4=152
K:F
V:1
D2 d2 cB/A/ G3/2 F/|E/F/G FF/E/ DD/C/ D/F/A |Dd Dd cB/A/ G3/2 F/|E/F/G FF/D/ DD/C/ D2 :| |:
CF Ac _e/d/c/B/ A3/2 c/|_e/d/c/ B/AA/ F/GG/ F/AA |CF Ac _e/d/c/B/ A3/2 c/|_e/d/c/ B/AA/ F/GG/ F/F2 :| |:
dc/d/ _ed c/B/A/G/ GG/F/ |E/F/G/A/ c/B/A/G/ GG/F/ A2 |dc/d/ _ed c/B/A/G/ GG/F/ |E/F/G/A/ c/B/A/G/ GG/F/ F2 :|





